!!!OTL: 357b. Marsch ins Feld. / [Bayerisches Soldatenlied beim Feldzuge 1814.]
!!!ARE: Europa, Mitteleuropa, Deutschland, Bayern, Franken
!!!SCT: E0357
!!!TXL: @@DE
!!!YEM: Copyright 1995, estate of Helmut Schaffrath.
**kern	**text
*ICvox	*
*M4/4	*
*met(c)	*
*k[b-e-]	*
*B-:	*
!LO:TX:a:t=Schrittmäßig.	!
{4f	Auf,
=1	=1
4.b-	Brü-
8a	-der,
4b-	auf
4cc	ʒum
=2	=2
2dd	Streit!
4r}	.
{4cc	Nehmt
=3	=3
4ee-	Sä-
4dd	-bel
4cc	und
4b-	Pi-
=4	=4
8aL	-ſtol
8ffJ	.
8ff	in
8ff	die
4ff}	Händ!
{4f	Jetʒt
=5	=5
4.b-	kommt
8a	die
4b-	fro-
4cc	-he
=6	=6
2dd	Ʒeit,
4r}	.
{4cc	der
=7	=7
4ee-	Marſch
4dd	der
4cc	geht
8b-L	ins
8ddJ	.
=8	=8
2cc	Feld.
4r}	.
{8a	Und
8b-/	die
=9	=9
4cc	Trom-
8cc	-mel
8cc	die
4cc	klingt
8b-	und
8cc	der
=10	=10
4dd	De-
8dd	-gen
8dd	der
4dd}	ſpringt,
{8aL	fecht
8b-J	.
=11	=11
4cc	je-
4cc	-der-
4cc	-mann,
4dd	der
=12	=12
8cc	ſech-
8cc	-ten,
8cc	ſech-
8cc	-ten
4cc}	kann,
{4ff^	das
=13	=13
4dd	iſt
4dd	Sol-
4cc	-da-
4cc	-ten_Ma-
=14	=14
2dd}	-nier,
{2ff^	das
=15	=15
4dd	iſt
8ddL	Sol-
8b-J	.
4cc	-da-
8cc	-ten
8a	Ma-
=16	=16
2b-	-nier.
4r}	.
==	==
!!!AGN: historisches Lied, Krieg (1814)
!!!ONB: ESAC (Essen Associative Code) Database: ERK1
!!!AMT: simple quadruple
!!!AIN: vox
!!!EED: Helmut Schaffrath
!!!EEV: 1.0
!!!GTL: Historische Lieder
!!!URL-scan: https://rosdok.uni-rostock.de/mcrviewer/recordIdentifier/rosdok_ppn745177662/iview2/phys_0176.iview2?x=-554.0825755873236&y=278.3920373317087&scale=0.46959934367803174&rotation=0&layout=singlePageLayout
!!!ENC: Anna Maria Matuszewska
!!!EEV: 2024/09/12
*-	*-
